icons/circle/48/testdrive.svg

<svg version="1.1" viewBox="0 0 48 48" xmlns="http://www.w3.org/2000/svg">
 <defs>
  <linearGradient id="linearGradient3764" x1="1" x2="47" gradientTransform="matrix(0 -1 1 0 -1.5e-6 48)" gradientUnits="userSpaceOnUse">
   <stop style="stop-color:#f29d6a" offset="0"/>
   <stop style="stop-color:#f4a97c" offset="1"/>
  </linearGradient>
 </defs>
 <path d="m36.31 5c5.859 4.062 9.688 10.831 9.688 18.5 0 12.426-10.07 22.5-22.5 22.5-7.669 0-14.438-3.828-18.5-9.688 1.037 1.822 2.306 3.499 3.781 4.969 4.085 3.712 9.514 5.969 15.469 5.969 12.703 0 23-10.298 23-23 0-5.954-2.256-11.384-5.969-15.469-1.469-1.475-3.147-2.744-4.969-3.781zm4.969 3.781c3.854 4.113 6.219 9.637 6.219 15.719 0 12.703-10.297 23-23 23-6.081 0-11.606-2.364-15.719-6.219 4.16 4.144 9.883 6.719 16.219 6.719 12.703 0 23-10.298 23-23 0-6.335-2.575-12.06-6.719-16.219z" style="opacity:.05"/>
 <path d="m41.28 8.781c3.712 4.085 5.969 9.514 5.969 15.469 0 12.703-10.297 23-23 23-5.954 0-11.384-2.256-15.469-5.969 4.113 3.854 9.637 6.219 15.719 6.219 12.703 0 23-10.298 23-23 0-6.081-2.364-11.606-6.219-15.719z" style="opacity:.1"/>
 <path d="m31.25 2.375c8.615 3.154 14.75 11.417 14.75 21.13 0 12.426-10.07 22.5-22.5 22.5-9.708 0-17.971-6.135-21.12-14.75a23 23 0 0 0 44.875 -7 23 23 0 0 0 -16 -21.875z" style="opacity:.2"/>
 <path d="m24 1c12.703 0 23 10.297 23 23s-10.297 23-23 23-23-10.297-23-23 10.297-23 23-23z" style="fill:url(#linearGradient3764)"/>
 <path d="m40.03 7.531c3.712 4.084 5.969 9.514 5.969 15.469 0 12.703-10.297 23-23 23-5.954 0-11.384-2.256-15.469-5.969 4.178 4.291 10.01 6.969 16.469 6.969 12.703 0 23-10.298 23-23 0-6.462-2.677-12.291-6.969-16.469z" style="opacity:.1"/>
 <path d="m25 10a15 15 0 0 0 -15 15 15 15 0 0 0 15 15 15 15 0 0 0 15 -15 15 15 0 0 0 -15 -15m0 3a12 12 0 0 1 11.516 8.648c-3.306-1.038-7.256-1.648-11.516-1.648-4.258 0-8.208 0.61-11.516 1.648a12 12 0 0 1 11.516 -8.648m-10.5 11c1.105 0 2 1.567 2 3.5 0 1.865-0.836 3.376-1.887 3.48a12 12 0 0 1 -1.607 -5.787c0.366-0.726 0.897-1.193 1.494-1.193m20.9 0c0.647 0 1.214 0.546 1.58 1.379a12 12 0 0 1 -1.598 5.617c-1.092-0.017-1.982-1.574-1.982-3.496 0-1.933 0.895-3.5 2-3.5zm-10.4 5c4.153 0 7.566 2.175 7.961 4.959a12 12 0 0 1 -7.961 3.041 12 12 0 0 1 -7.96 -3.037c0.392-2.783 3.805-4.963 7.96-4.963" style="opacity:.1"/>
 <path d="m24 9a15 15 0 0 0 -15 15 15 15 0 0 0 15 15 15 15 0 0 0 15 -15 15 15 0 0 0 -15 -15m0 3a12 12 0 0 1 11.516 8.648c-3.306-1.038-7.256-1.648-11.516-1.648-4.258 0-8.208 0.61-11.516 1.648a12 12 0 0 1 11.516 -8.648m-10.5 11c1.105 0 2 1.567 2 3.5 0 1.865-0.836 3.376-1.887 3.48a12 12 0 0 1 -1.607 -5.787c0.366-0.726 0.897-1.193 1.494-1.193m20.9 0c0.647 0 1.214 0.546 1.58 1.379a12 12 0 0 1 -1.598 5.617c-1.092-0.017-1.982-1.574-1.982-3.496 0-1.933 0.895-3.5 2-3.5zm-10.4 5c4.153 0 7.566 2.175 7.961 4.959a12 12 0 0 1 -7.961 3.041 12 12 0 0 1 -7.96 -3.037c0.392-2.783 3.805-4.963 7.96-4.963" style="fill:#606060"/>
 <path d="m24 19c-2.974 0-5.792 0.303-8.352 0.836a10 8.5 0 0 0 -1.518 3.359c0.793 0.464 1.369 1.76 1.369 3.305 0 0.726-0.131 1.394-0.348 1.951a10 8.5 0 0 0 1.992 2.223c1.398-1.6 3.942-2.674 6.855-2.674 2.916 0 5.461 1.075 6.859 2.678a10 8.5 0 0 0 1.928 -2.125c-0.241-0.577-0.387-1.283-0.387-2.053 0-1.608 0.623-2.949 1.467-3.359a10 8.5 0 0 0 -1.514 -3.303c-2.56-0.534-5.379-0.838-8.354-0.838" style="fill-opacity:.125"/>
 <path d="m24 21c-2.7614 0-5 1.3431-5 3s2.2386 3 5 3 5-1.3431 5-3-2.2386-3-5-3zm-1.396 1v0.896h0.891v0.641h-0.891v1.195c0 0.136 9e-3 0.246 0.025 0.328h-2e-3c0.016 0.078 0.038 0.134 0.063 0.172 0.026 0.036 0.056 0.058 0.096 0.074 0.043 0.017 0.095 0.029 0.16 0.029 0.12 0 0.213-0.017 0.273-0.043 0.077-0.035 0.131-0.062 0.16-0.076l0.1-0.047 0.121 0.627-0.064 0.039c-0.054 0.032-0.128 0.063-0.236 0.1-0.116 0.043-0.246 0.064-0.389 0.064-0.167 0-0.31-0.023-0.43-0.076l-2e-3 -2e-3h-2e-3c-0.116-0.057-0.212-0.145-0.285-0.258-0.073-0.112-0.125-0.248-0.154-0.402v-2e-3c-0.026-0.154-0.037-0.327-0.037-0.521v-2.613l0.604-0.125zm3.396 0v3.844l-0.063 0.021c-0.089 0.03-0.201 0.061-0.336 0.09-0.139 0.03-0.295 0.045-0.471 0.045-0.17 0-0.327-0.033-0.467-0.1-0.139-0.066-0.259-0.163-0.357-0.285-0.099-0.123-0.175-0.271-0.229-0.441h-2e-3v-2e-3c-0.051-0.174-0.074-0.366-0.074-0.576 0-0.199 0.02-0.383 0.063-0.553v-2e-3c0.045-0.17 0.11-0.319 0.197-0.445s0.196-0.224 0.322-0.295c0.13-0.071 0.277-0.109 0.438-0.109 0.128 0 0.245 0.021 0.348 0.064 0.036 0.015 0.054 0.032 0.084 0.047v-1.189l0.547-0.114m-1.163 1.838v2e-3h-2e-3c-0.061 0.037-0.11 0.087-0.15 0.158l-2e-3 2e-3c-0.041 0.068-0.07 0.153-0.09 0.256-0.02 0.105-0.029 0.218-0.029 0.34 0 0.277 0.055 0.479 0.158 0.617 0.104 0.137 0.231 0.199 0.408 0.199 0.098 0 0.178-7e-3 0.238-0.016 0.036-7e-3 0.056-0.011 0.082-0.018v-1.451c-0.035-0.03-0.077-0.061-0.143-0.094-0.073-0.036-0.153-0.055-0.244-0.0545s-0.164 0.0205-0.226 0.0595z" style="fill-opacity:.275"/>
 <path d="m24 21a5 3 0 0 0 -5 3 5 3 0 0 0 0.986 1.783 5 3 0 0 1 -0.486 -1.283 5 3 0 0 1 5 -3 5 3 0 0 1 4.01 1.215 5 3 0 0 0 -4.51 -1.715zm-0.9 1.5l-0.496 0.104v0.292h0.496v-0.396zm3.4 0l-0.5 0.104v3.24l-0.049 0.017v0.018c-0.026 6e-3 -0.045 0.011-0.082 0.017-0.016 3e-3 -0.045 2e-3 -0.064 4e-3 -0.065 0.019-0.122 0.037-0.203 0.055-0.14 0.03-0.296 0.045-0.472 0.045-0.157 0-0.3-0.032-0.431-0.088 0.036 0.067 0.06 0.148 0.106 0.208 0.098 0.12 0.215 0.214 0.355 0.28 0.142 0.067 0.299 0.1 0.469 0.1 0.177 0 0.333-0.015 0.471-0.045 0.14-0.029 0.248-0.059 0.338-0.09l0.062-0.021v-3.844zm-3.006 0.896v0.141h-0.89v1.195c0 0.136 9e-3 0.246 0.025 0.328h-2e-3c0.016 0.08 0.037 0.13 0.062 0.17 0.026 0.04 0.056 0.061 0.096 0.077 0.043 0.017 0.095 0.029 0.16 0.029 0.075 0 0.115-0.015 0.165-0.025 0-0.03-0.01-0.051-0.01-0.081v-1.19h0.894v-0.644h-0.5zm1.616 0.393c-0.01 5e-3 -0.02 7e-3 -0.03 0.012-0.124 0.07-0.233 0.169-0.32 0.299-0.083 0.12-0.145 0.261-0.19 0.421-1e-3 0.026-6e-3 0.048-6e-3 0.075 0 0.277 0.056 0.484 0.159 0.614 0.097 0.13 0.217 0.188 0.377 0.196-0.02-0.092-0.04-0.196-0.04-0.306 0-0.127 0.01-0.239 0.03-0.344 0.02-0.103 0.05-0.188 0.09-0.256l0.01-2e-3c0.04-0.071 0.08-0.121 0.146-0.158h2e-3v-2e-3c0.03-0.019 0.076-0.02 0.113-0.029v-0.381c-0.035-0.03-0.077-0.062-0.142-0.094-0.059-0.029-0.129-0.039-0.199-0.045zm-1.131 1.881l-0.1 0.047c-0.029 0.014-0.084 0.041-0.16 0.076-0.034 0.014-0.1 0.016-0.153 0.023l-0.031 0.02c-0.054 0.032-0.128 0.063-0.236 0.1-0.119 0.043-0.249 0.064-0.389 0.064-0.118 0-0.209-0.027-0.303-0.053 0.027 0.073 0.045 0.153 0.084 0.213 0.074 0.12 0.17 0.205 0.286 0.262h2e-3l1e-3 2e-3c0.12 0.053 0.26 0.076 0.43 0.076 0.143 0 0.273-0.021 0.389-0.064 0.108-0.037 0.182-0.068 0.241-0.1l0.06-0.039-0.121-0.627z" style="fill-opacity:.098"/>
</svg>

<svg xmlns="http://www.w3.org/2000/svg" viewBox="0 0 48 48">
 <defs>
  <linearGradient id="linearGradient3764" x1="1" x2="47" gradientUnits="userSpaceOnUse" gradientTransform="matrix(0,-1,1,0,-1.5e-6,47.999998)">
   <stop style="stop-color:#f29d6a;stop-opacity:1"/>
   <stop offset="1" style="stop-color:#f4a97c;stop-opacity:1"/>
  </linearGradient>
 </defs>
 <g>
  <path d="m 36.31 5 c 5.859 4.062 9.688 10.831 9.688 18.5 c 0 12.426 -10.07 22.5 -22.5 22.5 c -7.669 0 -14.438 -3.828 -18.5 -9.688 c 1.037 1.822 2.306 3.499 3.781 4.969 c 4.085 3.712 9.514 5.969 15.469 5.969 c 12.703 0 23 -10.298 23 -23 c 0 -5.954 -2.256 -11.384 -5.969 -15.469 c -1.469 -1.475 -3.147 -2.744 -4.969 -3.781 z m 4.969 3.781 c 3.854 4.113 6.219 9.637 6.219 15.719 c 0 12.703 -10.297 23 -23 23 c -6.081 0 -11.606 -2.364 -15.719 -6.219 c 4.16 4.144 9.883 6.719 16.219 6.719 c 12.703 0 23 -10.298 23 -23 c 0 -6.335 -2.575 -12.06 -6.719 -16.219 z" style="opacity:0.05"/>
  <path d="m 41.28 8.781 c 3.712 4.085 5.969 9.514 5.969 15.469 c 0 12.703 -10.297 23 -23 23 c -5.954 0 -11.384 -2.256 -15.469 -5.969 c 4.113 3.854 9.637 6.219 15.719 6.219 c 12.703 0 23 -10.298 23 -23 c 0 -6.081 -2.364 -11.606 -6.219 -15.719 z" style="opacity:0.1"/>
  <path d="m 31.25 2.375 c 8.615 3.154 14.75 11.417 14.75 21.13 c 0 12.426 -10.07 22.5 -22.5 22.5 c -9.708 0 -17.971 -6.135 -21.12 -14.75 a 23 23 0 0 0 44.875 -7 a 23 23 0 0 0 -16 -21.875 z" style="opacity:0.2"/>
 </g>
 <g>
  <path d="m 24 1 c 12.703 0 23 10.297 23 23 c 0 12.703 -10.297 23 -23 23 -12.703 0 -23 -10.297 -23 -23 0 -12.703 10.297 -23 23 -23 z" style="fill:url(#linearGradient3764);fill-opacity:1"/>
 </g>
 <g>
  <path d="m 40.03 7.531 c 3.712 4.084 5.969 9.514 5.969 15.469 0 12.703 -10.297 23 -23 23 c -5.954 0 -11.384 -2.256 -15.469 -5.969 4.178 4.291 10.01 6.969 16.469 6.969 c 12.703 0 23 -10.298 23 -23 0 -6.462 -2.677 -12.291 -6.969 -16.469 z" style="opacity:0.1"/>
 </g>
 <path d="M 25 10 A 15 15 0 0 0 10 25 15 15 0 0 0 25 40 15 15 0 0 0 40 25 15 15 0 0 0 25 10 m 0 3 a 12 12 0 0 1 11.516 8.648 C 33.21 20.61 29.26 20 25 20 20.742 20 16.792 20.61 13.484 21.648 A 12 12 0 0 1 25 13 M 14.5 24 c 1.105 0 2 1.567 2 3.5 0 1.865 -0.836 3.376 -1.887 3.48 a 12 12 0 0 1 -1.607 -5.787 C 13.372 24.467 13.903 24 14.5 24 m 20.9 0 c 0.647 0 1.214 0.546 1.58 1.379 a 12 12 0 0 1 -1.598 5.617 C 34.29 30.979 33.4 29.422 33.4 27.5 c 0 -1.933 0.895 -3.5 2 -3.5 z M 25 29 c 4.153 0 7.566 2.175 7.961 4.959 A 12 12 0 0 1 25 37 12 12 0 0 1 17.04 33.963 C 17.432 31.18 20.845 29 25 29" style="fill:#000;opacity:0.1;fill-opacity:1;stroke:none"/>
 <path d="M 24 9 A 15 15 0 0 0 9 24 15 15 0 0 0 24 39 15 15 0 0 0 39 24 15 15 0 0 0 24 9 M 24 12 a 12 12 0 0 1 11.516 8.648 C 32.21 19.61 28.26 19 24 19 19.742 19 15.792 19.61 12.484 20.648 A 12 12 0 0 1 24 12 M 13.5 23 c 1.105 0 2 1.567 2 3.5 0 1.865 -0.836 3.376 -1.887 3.48 a 12 12 0 0 1 -1.607 -5.787 C 12.372 23.467 12.903 23 13.5 23 m 20.9 0 c 0.647 0 1.214 0.546 1.58 1.379 a 12 12 0 0 1 -1.598 5.617 C 33.29 29.979 32.4 28.422 32.4 26.5 c 0 -1.933 0.895 -3.5 2 -3.5 z M 24 28 c 4.153 0 7.566 2.175 7.961 4.959 A 12 12 0 0 1 24 36 12 12 0 0 1 16.04 32.963 C 16.432 30.18 19.845 28 24 28" style="fill:#606060;opacity:1;fill-opacity:1;stroke:none"/>
 <path d="m 24 19 c -2.974 0 -5.792 0.303 -8.352 0.836 a 10 8.5 0 0 0 -1.518 3.359 c 0.793 0.464 1.369 1.76 1.369 3.305 c 0 0.726 -0.131 1.394 -0.348 1.951 a 10 8.5 0 0 0 1.992 2.223 c 1.398 -1.6 3.942 -2.674 6.855 -2.674 c 2.916 0 5.461 1.075 6.859 2.678 a 10 8.5 0 0 0 1.928 -2.125 c -0.241 -0.577 -0.387 -1.283 -0.387 -2.053 c 0 -1.608 0.623 -2.949 1.467 -3.359 a 10 8.5 0 0 0 -1.514 -3.303 c -2.56 -0.534 -5.379 -0.838 -8.354 -0.838" style="fill:#000;opacity:1;fill-opacity:0.125;stroke:none"/>
 <path d="m 24 21 a 5 3 0 0 0 -5 3 5 3 0 0 0 5 3 5 3 0 0 0 5 -3 5 3 0 0 0 -5 -3 z m -1.396 1 0 0.896 0.891 0 0 0.641 -0.891 0 0 1.195 c 0 0.136 0.009 0.246 0.025 0.328 l -0.002 0 c 0.016 0.078 0.038 0.134 0.063 0.172 0.026 0.036 0.056 0.058 0.096 0.074 0.043 0.017 0.095 0.029 0.16 0.029 0.12 0 0.213 -0.017 0.273 -0.043 0.077 -0.035 0.131 -0.062 0.16 -0.076 l 0.1 -0.047 0.121 0.627 -0.064 0.039 c -0.054 0.032 -0.128 0.063 -0.236 0.1 -0.116 0.043 -0.246 0.064 -0.389 0.064 -0.167 0 -0.31 -0.023 -0.43 -0.076 l -0.002 -0.002 -0.002 0 c -0.116 -0.057 -0.212 -0.145 -0.285 -0.258 -0.073 -0.112 -0.125 -0.248 -0.154 -0.402 l 0 -0.002 c -0.026 -0.154 -0.037 -0.327 -0.037 -0.521 l 0 -2.613 0.604 -0.125 z M 26 22 l 0 3.844 -0.063 0.021 c -0.089 0.03 -0.201 0.061 -0.336 0.09 C 25.462 25.985 25.306 26 25.13 26 c -0.17 0 -0.327 -0.033 -0.467 -0.1 -0.139 -0.066 -0.259 -0.163 -0.357 -0.285 -0.099 -0.123 -0.175 -0.271 -0.229 -0.441 l -0.002 0 0 -0.002 c -0.051 -0.174 -0.074 -0.366 -0.074 -0.576 0 -0.199 0.02 -0.383 0.063 -0.553 l 0 -0.002 c 0.045 -0.17 0.11 -0.319 0.197 -0.445 0.087 -0.126 0.196 -0.224 0.322 -0.295 0.13 -0.071 0.277 -0.109 0.438 -0.109 0.128 0 0.245 0.021 0.348 0.064 0.036 0.015 0.054 0.032 0.084 0.047 l 0 -1.189 L 26 22 m -0.934 1.779 c -0.094 0 -0.167 0.02 -0.229 0.059 l 0 0.002 -0.002 0 c -0.061 0.037 -0.11 0.087 -0.15 0.158 l -0.002 0.002 c -0.041 0.068 -0.07 0.153 -0.09 0.256 -0.02 0.105 -0.029 0.218 -0.029 0.34 0 0.277 0.055 0.479 0.158 0.617 0.104 0.137 0.231 0.199 0.408 0.199 0.098 0 0.178 -0.007 0.238 -0.016 0.036 -0.007 0.056 -0.011 0.082 -0.018 l 0 -1.451 c -0.035 -0.03 -0.077 -0.061 -0.143 -0.094 -0.073 -0.036 -0.153 -0.055 -0.242 -0.055 z" style="fill:#000;opacity:1;fill-opacity:0.275;stroke:none"/>
 <path d="M 24 21 A 5 3 0 0 0 19 24 A 5 3 0 0 0 19.986 25.783 A 5 3 0 0 1 19.5 24.5 A 5 3 0 0 1 24.5 21.5 A 5 3 0 0 1 28.51 22.715 A 5 3 0 0 0 24 21 z M 23.1 22.5 L 22.604 22.604 L 22.604 22.896 L 23.1 22.896 L 23.1 22.5 z M 26.5 22.5 L 26 22.604 L 26 25.844 L 25.951 25.861 L 25.951 25.879 C 25.925 25.885 25.906 25.89 25.869 25.896 C 25.853 25.899 25.824 25.898 25.805 25.9 C 25.74 25.919 25.683 25.937 25.602 25.955 C 25.462 25.985 25.306 26 25.13 26 C 24.973 26 24.83 25.968 24.699 25.912 C 24.735 25.979 24.759 26.06 24.805 26.12 C 24.903 26.24 25.02 26.334 25.16 26.4 C 25.302 26.467 25.459 26.5 25.629 26.5 C 25.806 26.5 25.962 26.485 26.1 26.455 C 26.24 26.426 26.348 26.396 26.438 26.365 L 26.5 26.344 L 26.5 22.5 z M 23.494 23.396 L 23.494 23.537 L 22.604 23.537 L 22.604 24.732 C 22.604 24.868 22.613 24.978 22.629 25.06 L 22.627 25.06 C 22.643 25.14 22.664 25.19 22.689 25.23 C 22.715 25.27 22.745 25.291 22.785 25.307 C 22.828 25.324 22.88 25.336 22.945 25.336 C 23.02 25.336 23.06 25.321 23.11 25.311 C 23.11 25.281 23.1 25.26 23.1 25.23 L 23.1 24.04 L 23.994 24.04 L 23.994 23.396 L 23.494 23.396 z M 25.11 23.789 C 25.1 23.794 25.09 23.796 25.08 23.801 C 24.956 23.871 24.847 23.97 24.76 24.1 C 24.677 24.22 24.615 24.361 24.57 24.521 C 24.569 24.547 24.564 24.569 24.564 24.596 C 24.564 24.873 24.62 25.08 24.723 25.21 C 24.82 25.34 24.94 25.398 25.1 25.406 C 25.08 25.314 25.06 25.21 25.06 25.1 C 25.06 24.973 25.07 24.861 25.09 24.756 C 25.11 24.653 25.14 24.568 25.18 24.5 L 25.19 24.498 C 25.23 24.427 25.27 24.377 25.336 24.34 L 25.338 24.34 L 25.338 24.338 C 25.368 24.319 25.414 24.318 25.451 24.309 L 25.451 23.928 C 25.416 23.898 25.374 23.866 25.309 23.834 C 25.25 23.805 25.18 23.795 25.11 23.789 z M 23.979 25.67 L 23.879 25.717 C 23.85 25.731 23.795 25.758 23.719 25.793 C 23.685 25.807 23.619 25.809 23.566 25.816 L 23.535 25.836 C 23.481 25.868 23.407 25.899 23.299 25.936 C 23.18 25.979 23.05 26 22.91 26 C 22.792 26 22.701 25.973 22.607 25.947 C 22.634 26.02 22.652 26.1 22.691 26.16 C 22.765 26.28 22.861 26.365 22.977 26.422 L 22.979 26.422 L 22.98 26.424 C 23.1 26.477 23.24 26.5 23.41 26.5 C 23.553 26.5 23.683 26.479 23.799 26.436 C 23.907 26.399 23.981 26.368 24.04 26.336 L 24.1 26.297 L 23.979 25.67 z" style="fill:#000;opacity:1;fill-opacity:0.098;stroke:none"/>
</svg>
